X: 3581
T: Bike To Ballyhahill, The
R: polka
M: 2/4
K: Adorian
EA, A,E|E/F/G/F/ GF|EA, A,E|E/F/G/F/ G^G|
Ae A^d|Ad Ac|A>G ED|E/F/G BA:|
[K:D]
|:D>D DE|FE ED|B,G, G,D|B,/C/D/C/ B,A,|
D>D DE|FE EF/A/|B/c/d/c/ BA|E2 E2:|

